X: 2899
T: Barney Conlon's
R: barndance
M: 4/4
K: Amajor
cB|AEAc efec|dcde f2ed|(3cBA eA (3cBA eA|c2BB B2 cB|
AEAc efec|dcde faed|ceae ce dB|c2A2 A2:|
ef|abaf efec|dcde f2ed|(3cBA eA (3cBA eA|c2BB B2 ef|
abaf efec|dcde faeB|ceae ce dB|c2A2 A2 ef|
abaf efec|dcde f2ed|(3cBA eA (3cBA eA|c2BB B2 cB|
AEAc efec|dcde faed|ceae ce dB|c2A2 A2||

